X: 51
T:Missa L'ami Baudichon / Kyrie
N: Derived from Jos0501a-Missa_Lami_Baudichon-Kyrie.krn
C: Josquin des Prez
%%abc-version 2.0
%%abcx-abcm2ps-target-version 5.9.1 (29 Sep 2008)
%%abc-creator hum2abc beta
%%abcx-conversion-date 2019/02/12 16:15:40
%%abc-edited-by Jesse Rodin
%%abc-edited-by Jesse Rodin; Victoria Chang 2012/02/11
%%abcx-initial-encoding-date 2012/02/11/
%%humdrum-veritas 4110084275
%%humdrum-veritas-data 3260562519
%%linebreak <none>
%%barnumbers 0
L: 1/4
M: 3/1
Q: 1/2=120
%%staves [1 2 3 4]
V: 1 clef=treble
V: 2 clef=treble-8
V: 3 clef=treble-8
V: 4 clef=bass
K: C
[V:1] c8c4 | 
[V:2] c8e2f2 | 
[V:3] z12 | 
[V:4] z12 | 
[V:1] B4A6G2 | 
[V:2] g4f6e2 | 
[V:3] z12 | 
[V:4] z12 | 
[V:1] G4F6E2 | 
[V:2] e4d2d3cA2 | 
[V:3] z12 | 
[V:4] z12 | 
[V:1] E4D6C2 | 
[V:2] G2c2d2B4A2 | 
[V:3] z12 | 
[V:4] z12 | 
[V:1] C4z4c4 | 
[V:2] c8g4- | 
[V:3] e8e4 | 
[V:4] C,12 | 
[V:1] B6c2d4 | 
[V:2] g4G8 | 
[V:3] d8d4 | 
[V:4] G,6A,2B,4 | 
[V:1] G6ABc4 | 
[V:2] e8e4 | 
[V:3] c8c4 | 
[V:4] C8A,4- | 
[V:1] A2c3BA4GF | 
[V:2] e4f8 | 
[V:3] c8c4 | 
[V:4] A,4F,8 | 
[V:1] E2G3CC4c2 | 
[V:2] g4c4g4- | 
[V:3] e8e4 | 
[V:4] C,12 | 
[V:1] d2f3edcB3A | 
[V:2] g2a3gfed4 | 
[V:3] d8d4 | 
[V:4] G,2F,2D,4G,4 | 
[V:1] c12- | 
[V:2] z2e4f2g4 | 
[V:3] c12- | 
[V:4] C,12- | 
[V:1] c12 ||  
[V:2] c12 ||  
[V:3] c12 ||  
[V:4] C,12 ||  
[V:1] [M:2/1]c8- | 
[V:2] [M:2/1]c8- | 
[V:3] [M:2/1]z8 | 
[V:4] [M:2/1]z8 | 
[V:1] c6B2 | 
[V:2] c8 | 
[V:3] z8 | 
[V:4] z8 | 
[V:1] A8 | 
[V:2] f8 | 
[V:3] z8 | 
[V:4] z8 | 
[V:1] G6F2 | 
[V:2] e6d2 | 
[V:3] z8 | 
[V:4] z8 | 
[V:1] G4A4- | 
[V:2] e4f4 | 
[V:3] z8 | 
[V:4] z8 | 
[V:1] A2G2F4 | 
[V:2] d8 | 
[V:3] z8 | 
[V:4] z8 | 
[V:1] E8 | 
[V:2] c8 | 
[V:3] g8 | 
[V:4] z8 | 
[V:1] z8 | 
[V:2] G4A4 | 
[V:3] g4f4- | 
[V:4] z8 | 
[V:1] D8 | 
[V:2] B8 | 
[V:3] f4f4 | 
[V:4] z8 | 
[V:1] C4G4- | 
[V:2] c8- | 
[V:3] e8 | 
[V:4] z8 | 
[V:1] G2F2G4 | 
[V:2] c8- | 
[V:3] e4e4- | 
[V:4] C,8- | 
[V:1] A4c4 | 
[V:2] c8 | 
[V:3] e4e4 | 
[V:4] C,8 | 
[V:1] B4G4 | 
[V:2] G8 | 
[V:3] g8 | 
[V:4] E,6F,2 | 
[V:1] B4c4 | 
[V:2] z8 | 
[V:3] g4f4- | 
[V:4] G,4A,4 | 
[V:1] d8 | 
[V:2] z8 | 
[V:3] f4f4 | 
[V:4] B,8 | 
[V:1] G8 | 
[V:2] z4g4- | 
[V:3] e8 | 
[V:4] C8- | 
[V:1] z8 | 
[V:2] g4e2f2 | 
[V:3] z8 | 
[V:4] C8 | 
[V:1] E8 | 
[V:2] g4c4 | 
[V:3] z8 | 
[V:4] z8 | 
[V:1] E4D4- | 
[V:2] g4f2f2- | 
[V:3] z8 | 
[V:4] z8 | 
[V:1] D4D4 | 
[V:2] fedcB3A | 
[V:3] z8 | 
[V:4] z8 | 
[V:1] C4G2A2 | 
[V:2] c4e3f | 
[V:3] e8 | 
[V:4] C,8 | 
[V:1] G2c4BA | 
[V:2] g4f4 | 
[V:3] e4d4- | 
[V:4] E,4F,4 | 
[V:1] G2B3AGF | 
[V:2] d4g4- | 
[V:3] d4d4 | 
[V:4] G,8 | 
[V:1] E4z4 | 
[V:2] g4e2c2 | 
[V:3] c8 | 
[V:4] C,8- | 
[V:1] G4E4 | 
[V:2] e3fg2a2- | 
[V:3] c4c4- | 
[V:4] C,8- | 
[V:1] F2G3FED | 
[V:2] a2gfe4 | 
[V:3] c4c4 | 
[V:4] C,8 | 
[V:1] C4z2c2- | 
[V:2] z2c4A2- | 
[V:3] e8 | 
[V:4] C4A,4 | 
[V:1] c2A2B2d2- | 
[V:2] A2c2G2B2 | 
[V:3] e4d4- | 
[V:4] C4B,2G,2- | 
[V:1] dcA2BAGF | 
[V:2] A4G4 | 
[V:3] d4d4 | 
[V:4] G,2F,2G,4 | 
[V:1] E3FG2A2- | 
[V:2] g4e2f2 | 
[V:3] c8- | 
[V:4] z4C,4- | 
[V:1] ABc4BA | 
[V:2] g4c4 | 
[V:3] c8- | 
[V:4] C,4F,4 | 
[V:1] G2A4GF | 
[V:2] e4f4 | 
[V:3] c8- | 
[V:4] E,2C,2F,3E, | 
[V:1] E8 ||  
[V:2] g8 ||  
[V:3] c8 ||  
[V:4] C,8 ||  
[V:1] [M:3/1]G8c4 | 
[V:2] [M:3/1]e12 | 
[V:3] [M:3/1]z12 | 
[V:4] [M:3/1]z12 | 
[V:1] B2A4GABAGF | 
[V:2] d12 | 
[V:3] z12 | 
[V:4] z12 | 
[V:1] E4C4G4 | 
[V:2] c12 | 
[V:3] e8e4 | 
[V:4] C,8C,4 | 
[V:1] F2A3GF4ED | 
[V:2] A8_B4 | 
[V:3] d8d4 | 
[V:4] D,2F,3E,D,C,_B,,3A,, | 
[V:1] E8z4 | 
[V:2] G4g4e3f | 
[V:3] c8c4 | 
[V:4] C,12- | 
[V:1] C8G4 | 
[V:2] g8c4 | 
[V:3] e8e4 | 
[V:4] C,12 | 
[V:1] A6B6 | 
[V:2] f8g4 | 
[V:3] d8d4 | 
[V:4] z4z4G,4 | 
[V:1] c3BA2G2c3d | 
[V:2] e2f4edc4 | 
[V:3] c8z4 | 
[V:4] C,2F,4G,2A,4 | 
[V:1] B4z2G2A2F2 | 
[V:2] z4d8 | 
[V:3] g8f4 | 
[V:4] G,2G,3F,E,2D,4 | 
[V:1] G6FED4 | 
[V:2] G8z4 | 
[V:3] e4g4f4 | 
[V:4] C,4z2C,2D,2B,,2 | 
[V:1] C2G3FE2D4 | 
[V:2] z4z2c2d2B2 | 
[V:3] e8z4 | 
[V:4] C,8z4 | 
[V:1] C8z4 | 
[V:2] c2g4e2f3g | 
[V:3] e8d4 | 
[V:4] z4z2C,2D,2B,,2 | 
[V:1] z4z2c2d2B2 | 
[V:2] e4c4z2g2 | 
[V:3] c4e4d4 | 
[V:4] C,8G,4 | 
[V:1] c3de2f3edc | 
[V:2] e2a3gfef4 | 
[V:3] c12 | 
[V:4] A,12 | 
[V:1] !fermata!B12 | 
[V:2] !fermata!g12 | 
[V:3] !fermata!d12 | 
[V:4] !fermata!G,12 | 
[V:1] c12 |]  
[V:2] g12 |]  
[V:3] c12 |]  
[V:4] C,12 |]  



